ufans-frontend-package/public/assets/images/new-settings/map-marker-icon.svg

<svg width="64" height="96" viewBox="0 0 64 96" fill="none" xmlns="http://www.w3.org/2000/svg">
<path d="M48 32C48 27.5833 46.4375 23.8125 43.3125 20.6875C40.1875 17.5625 36.4167 16 32 16C27.5833 16 23.8125 17.5625 20.6875 20.6875C17.5625 23.8125 16 27.5833 16 32C16 36.4167 17.5625 40.1875 20.6875 43.3125C23.8125 46.4375 27.5833 48 32 48C36.4167 48 40.1875 46.4375 43.3125 43.3125C46.4375 40.1875 48 36.4167 48 32ZM64 32C64 36.5417 63.3125 40.2708 61.9375 43.1875L39.1875 91.5625C38.5208 92.9375 37.5312 94.0208 36.2188 94.8125C34.9062 95.6042 33.5 96 32 96C30.5 96 29.0938 95.6042 27.7812 94.8125C26.4688 94.0208 25.5 92.9375 24.875 91.5625L2.0625 43.1875C0.6875 40.2708 0 36.5417 0 32C0 23.1667 3.125 15.625 9.375 9.375C15.625 3.125 23.1667 0 32 0C40.8333 0 48.375 3.125 54.625 9.375C60.875 15.625 64 23.1667 64 32Z" fill="#6661E7"/>
</svg>

<svg xmlns="http://www.w3.org/2000/svg" width="64.034" height="96.004" viewBox="0 0 64.034 96.004">
  <path id="map-marker-icon" d="M48,32a15.415,15.415,0,0,0-4.687-11.312A15.415,15.415,0,0,0,32,16a15.415,15.415,0,0,0-11.312,4.688A15.415,15.415,0,0,0,16,32a15.415,15.415,0,0,0,4.688,11.313A15.415,15.415,0,0,0,32,48a15.415,15.415,0,0,0,11.313-4.687A15.415,15.415,0,0,0,48,32Zm16,0a26.3,26.3,0,0,1-2.062,11.188L39.188,91.563a7.586,7.586,0,0,1-2.969,3.25,8.088,8.088,0,0,1-8.438,0,7.2,7.2,0,0,1-2.906-3.25L2.063,43.188A26.3,26.3,0,0,1,0,32,30.831,30.831,0,0,1,9.375,9.375,30.831,30.831,0,0,1,32,0,30.831,30.831,0,0,1,54.625,9.375,30.831,30.831,0,0,1,64,32Z" transform="translate(0.017 0.004)" fill="#e44499"/>
</svg>
